X: 1
T: Take Five
M: 5/4
L: 1/8
K: Ebm
B,EGA|:"Ebm"=ABA_AG2"Bbm7"B,2D2|"Ebm"E6"Bbm7"F/G/F/E/D2|
"Ebm"E6"Bbm7"D/E/D/B,/A,2|"Ebm"B,6"Bbm7"B,EGA|"Ebm"=ABA_AG2"Bbm7"B,2D2|
"Ebm"E6"Bbm7"D/E/D/B,/A,2|"Ebm"B,6F/G/F/E/D2|"Ebm"E6z4||
"Cbmaj7"egz ec2"Abm7"ABc=c|"Bbm7"dfz dB2"Ebm7"GA=AB|"Abm7"cez cA2"Db7"FGA=A|
"Gbmaj7"B=ABcd2d=cd=d|"Cbmaj7"egz ec2"Abm7"ABc=c|"Bbm7"dfz dB2"Ebm7"GA=AB|
"Abm7"cez cA2"Db7"FGdc|"Fm7b5"B6"Bb7b9"B,EGA:|
